www/assets/icons/hearing_disabled.svg

<svg width="24" height="24" viewBox="0 0 24 24" xmlns="http://www.w3.org/2000/svg" fill='currentColor'><path d="M6.73998 3.28493C7.85998 2.52493 9.21998 2.08493 10.71 2.08493C14.64 2.08493 17.71 5.15493 17.71 9.08493C17.71 10.3449 17.33 11.7349 16.64 12.9849C16.62 13.0249 16.59 13.0649 16.56 13.1149L15.08 11.6349C15.48 10.7749 15.71 9.88493 15.71 9.08493C15.71 6.28493 13.51 4.08493 10.71 4.08493C9.78998 4.08493 8.94998 4.34493 8.20998 4.75493L6.73998 3.28493ZM17.92 14.4649L19.35 15.8949C20.82 14.0149 21.71 11.6549 21.71 9.08493C21.71 6.04493 20.48 3.29493 18.49 1.30493L17.07 2.72493C18.7 4.34493 19.71 6.59493 19.71 9.08493C19.71 11.1049 19.04 12.9649 17.92 14.4649ZM10.71 6.58493C10.5 6.58493 10.31 6.61493 10.12 6.66493L13.13 9.67493C13.18 9.48493 13.21 9.29493 13.21 9.08493C13.21 7.70493 12.09 6.58493 10.71 6.58493ZM21.9 21.2749L3.51998 2.89493L2.09998 4.30493L4.22998 6.43493C3.89998 7.24493 3.70998 8.13493 3.70998 9.08493H5.70998C5.70998 8.72493 5.75998 8.37493 5.82998 8.03493L12.44 14.6449C11.56 15.3249 10.66 16.0549 10.17 17.5449C9.66998 19.0449 9.16998 19.5549 8.45998 19.9249C8.26998 20.0249 7.99998 20.0849 7.70998 20.0849C6.60998 20.0849 5.70998 19.1849 5.70998 18.0849H3.70998C3.70998 20.2949 5.49998 22.0849 7.70998 22.0849C8.27998 22.0849 8.83998 21.9649 9.34998 21.7349C10.71 21.0249 11.48 20.0049 12.08 18.1849C12.4 17.2049 12.98 16.7549 13.79 16.1349C13.82 16.1149 13.84 16.0949 13.87 16.0749L20.49 22.6949L21.9 21.2749Z"/></svg>

<svg xmlns="http://www.w3.org/2000/svg" width="24" height="24" viewBox="0 0 24 24" fill='currentColor'><path d="M6.74 3.285c1.12-.76 2.48-1.2 3.97-1.2 3.93 0 7 3.07 7 7 0 1.26-.38 2.65-1.07 3.9-.02.04-.05.08-.08.13l-1.48-1.48c.4-.86.63-1.75.63-2.55 0-2.8-2.2-5-5-5-.92 0-1.76.26-2.5.67zm11.18 11.18 1.43 1.43c1.47-1.88 2.36-4.24 2.36-6.81 0-3.04-1.23-5.79-3.22-7.78l-1.42 1.42a8.94 8.94 0 0 1 2.64 6.36c0 2.02-.67 3.88-1.79 5.38m-7.21-7.88c-.21 0-.4.03-.59.08l3.01 3.01c.05-.19.08-.38.08-.59a2.5 2.5 0 0 0-2.5-2.5m11.19 14.69L3.52 2.895 2.1 4.305l2.13 2.13c-.33.81-.52 1.7-.52 2.65h2c0-.36.05-.71.12-1.05l6.61 6.61c-.88.68-1.78 1.41-2.27 2.9-.5 1.5-1 2.01-1.71 2.38-.19.1-.46.16-.75.16-1.1 0-2-.9-2-2h-2a4 4 0 0 0 5.64 3.65c1.36-.71 2.13-1.73 2.73-3.55.32-.98.9-1.43 1.71-2.05.03-.02.05-.04.08-.06l6.62 6.62z"/></svg>
